!!!!SEGMENT: pl-kk--kk-i-2--046-004_anonim--officium-a-4-voci-paschale-sanctus.krn
!!!cenid: 16xx:1721
!!!COM: Anonim
!!!COM-rismID: pe30004985
!!!CDT:
!!!CNT:
!!!OPR: Officium A 4 Voci Paschale
!!!OTL: Sanctus
!!!OMV: 004
!!!PDT:
!!!AGN: Sacred; Mass
!!!SMS-siglum: PL-Kk
!!!SMS-shelfmark: Kk.I.2
!!!SMS-shelfwork: 046-004 M
!!!NIFC-rismSourceID: 300258064
!!!NIFC-islandoraID: pl-kk:750
!!!URL-pdf-islandora: https://repozytorium.nifc.pl/islandora/object/pl-kk%3A750/datastream/PDF/view
!!!URL-scan: https://polish.musicsources.pl/pl/lokalizacje/galeria/rekopisy/5828 @EN{Scan on Polish Music Herritage in Open Access Website} @PL{Skany w portalu Dziedzictwo Muzyki Polskiej w otwartym dostępie}
!!!ONB-nifc: Części mszy: Kyrie, Gloria, Credo, Sanctus, Agnus Dei; skany: C: 0079-0080; A: 0183-0184; T: 0282-0283; B: 0383-0384;
!!!AIN: 1 alto 1 bass 1 soprn 1 tenor
!!!key:
**kern	**text	**kern	**text	**kern	**text	**kern	**text
*part4	*part4	*part3	*part3	*part2	*part2	*part1	*part1
*staff4	*staff4	*staff3	*staff3	*staff2	*staff2	*staff1	*staff1
*I"BASVS	*	*I"TENOR	*	*I"ALTVS	*	*I"DISCANTVS	*
*I'B	*	*I'T	*	*I'A	*	*I'S	*
*Ibass	*	*Itenor	*	*Ialto	*	*Isoprn	*
*ICvox	*	*ICvox	*	*ICvox	*	*ICvox	*
*clefF4	*	*clefC4	*	*clefC4	*	*clefC3	*
*k[]	*	*k[]	*	*k[]	*	*k[]	*
*d:	*	*d:	*	*d:	*	*d:	*
*M2/1	*	*M2/1	*	*M2/1	*	*M2/1	*
*met(C|)	*	*met(C|)	*	*met(C|)	*	*met(C|)	*
=1-	=1-	=1-	=1-	=1-	=1-	=1-	=1-
*all\right	*	*all\right	*	*	*	*	*
*lig	*	*lig	*	*all\right	*	*all\right	*
1D\	San-	1D/	San-	2.A/	San-	1f\	San-
!	!	!	!	!LO:TX:t=P:problem=kreska pseudotaktowa	!	!	!
.	.	.	.	4B\	.	.	.
*	*	*	*	*	*	*2\right	*
!LO:TX:t=P:problem=kreska pseudotaktowa	!	!	!	!	!	!	!
1AA/	.	1E/	.	1c\	.	2e\	.
.	.	.	.	.	.	4d\	.
!	!	!	!	!	!	!LO:TX:t=P:problem=kreska pseudotaktowa	!
.	.	.	.	.	.	4c/	.
*Xlig	*	*Xlig	*	*	*	*	*
=2-	=2-	=2-	=2-	=2-	=2-	=2-	=2-
*lig	*	*lig	*	*	*	*	*
1GG/	-ctus	1G/	.	2G/	-ctus	2d\	.
*	*	*	*	*2\right	*	*	*
!	!	!	!	!LO:TX:t=P:problem=kreska pseudotaktowa	!	!	!
.	.	.	.	2B\	.	2g\	.
*	*	*	*	*	*ij	*	*
1FF/	.	1A\	.	4c\	San-	1c\	-ctus
.	.	.	.	4B\	.	.	.
.	.	.	.	4A/	.	.	.
.	.	.	.	8G/L	.	.	.
.	.	.	.	8A/J	.	.	.
!	!	!	!	!LO:TX:t=P:problem=kreska pseudotaktowa	!	!	!
*Xlig	*ij	*Xlig	*	*	*	*	*
=3-	=3-	=3-	=3-	=3-	=3-	=3-	=3-
2BB-X/	San-	2D/	.	2B-X\	.	2d\	.
!LO:TX:t=P:problem=kreska pseudotaktowa	!	!LO:TX:t=P:problem=kreska pseudotaktowa	!	!LO:TX:t=P:problem=kreska pseudotaktowa	!	!LO:TX:t=P:problem=kreska pseudotaktowa	!
2C/	.	2E/	.	2G/	.	2c/	.
*	*	*	*	*	*	*	*ij
1D\	.	1F/	.	4d\	.	1A/	San-
.	.	.	.	8c\L	.	.	.
.	.	.	.	8B-\J	.	.	.
.	.	.	.	4.A/	.	.	.
!	!	!	!	!LO:TX:t=P:problem=kreska pseudotaktowa	!	!	!
.	.	.	.	8B-\	.	.	.
=4-	=4-	=4-	=4-	=4-	=4-	=4-	=4-
*lig	*	*	*	*	*	*	*
!	!	!LO:TX:t=P:problem=kreska pseudotaktowa	!	!	!	!	!
*	*	*	*	*	*	*lig	*
1AA/	-ctus	1E/	-ctus	1c\	.	1A/	.
*	*	*lig	*	*	*	*	*
1GG/	.	1G/	San-	2G/	.	1B/	.
.	.	.	.	2d\	-ctus	.	.
!	!	!	!	!LO:TX:t=P:problem=kreska pseudotaktowa	!	!	!
*Xlig	*Xij	*	*	*	*	*Xlig	*
=5-	=5-	=5-	=5-	=5-	=5-	=5-	=5-
2.FF/	ſan-	1A\	.	2.A/	San-	1.c\	.
!LO:TX:t=P:problem=kreska pseudotaktowa	!	!	!	!	!	!	!
4GG/	.	.	.	4Bny\	.	.	.
*	*	*Xlig	*	*	*	*	*
*	*	*	*	*custos:B-	*	*	*
!	!	!LO:TX:t=P:problem=kreska pseudotaktowa	!	!LO:TX:t=P:problem=kreska pseudotaktowa	!	!	!
4AA/	.	1A\	-ctus	1c\	.	.	.
4BBny/	.	.	.	.	.	.	.
4C/	.	.	.	.	.	1c\	.
!LO:TX:t=P:problem=kreska pseudotaktowa	!	!	!	!	!	!	!
4D/	.	.	.	.	.	.	.
!	!	!	!	!LO:LB:g=original	!	!	!
=6-	=6-	=6-	=6-	=6-	=6-	=6-	=6-
*	*	*lig	*	*	*	*	*
4E\	.	1G/	San-	4G/	.	.	.
4C/	.	.	.	4A/	.	.	.
!	!	!	!	!	!	!LO:TX:t=P:problem=kreska pseudotaktowa	!
1G\	.	.	.	4B\	.	2d\	-ctus
!	!	!	!	!LO:TX:t=P:problem=kreska pseudotaktowa	!	!	!
.	.	.	.	4c\	.	.	.
.	.	1B\	.	1d\	.	1d\	San-
!LO:TX:t=P:problem=kreska pseudotaktowa	!	!	!	!	!	!	!
2GG/	.	.	.	.	.	.	.
*	*	*Xlig	*	*	*	*	*
=7-	=7-	=7-	=7-	=7-	=7-	=7-	=7-
2C/	.	2G/	.	2c\	.	2e\	.
*custos:AA	*	*	*	*	*	*custos:c	*
!LO:TX:t=P:problem=kreska pseudotaktowa	!	!LO:TX:t=P:problem=kreska pseudotaktowa	!	!	!	!LO:TX:t=P:problem=kreska pseudotaktowa	!
2D/	.	2F/	.	4F/	.	2A/	.
!	!	!	!	!LO:TX:t=P:problem=kreska pseudotaktowa	!	!	!
.	.	.	.	4A/	.	.	.
!LO:TX:t=P:problem=kreska pseudotaktowa	!	!	!	!	!	!	!
!LO:LB:g=original	!	!	!	!	!	!LO:LB:g=original	!
0AA/	-ctus	0E/	.	0A\	-ctus	0c\	.
=8-	=8-	=8-	=8-	=8-	=8-	=8-	=8-
.	.	.	.	.	.	.	.
*	*	*	*	*	*Xij	*	*
!	!	!	!	!	!	!LO:TX:t=P:problem=kreska pseudotaktowa	!
1.D\	Do-	2D/	.	2F/	Do-	1d\	-ctus
*	*	*	*	*	*	*	*Xij
*	*	*custos:E	*	*	*	*	*
!	!	!LO:TX:t=P:problem=kreska pseudotaktowa	!	!LO:TX:t=P:problem=kreska pseudotaktowa	!	!	!
.	.	2E/	.	2G/	-mi-	.	.
!	!	!LO:PB:g=original	!	!	!	!	!
=9-	=9-	=9-	=9-	=9-	=9-	=9-	=9-
.	.	2F/	.	2A/	-nus	2.d\	Do-
2D/	-mi-	2F/	.	2d\	De-	.	.
.	.	.	.	.	.	4A/	-mi-
!LO:TX:t=P:problem=kreska pseudotaktowa	!	!LO:TX:t=P:problem=kreska pseudotaktowa	!	!LO:TX:t=P:problem=kreska pseudotaktowa	!	!LO:TX:t=P:problem=kreska pseudotaktowa	!
1AA/	-nus	1E/	-ctus	1c#X\	-us	1A/	-nus
=10-	=10-	=10-	=10-	=10-	=10-	=10-	=10-
1GG/	De-	1B\	Do-	2r	.	1.d\	De-
.	.	.	.	1d\	De-	.	.
1G\	.	1B\	-mi-	.	.	.	.
!	!	!	!	!LO:TX:t=P:problem=kreska pseudotaktowa	!	!	!
.	.	.	.	2d\	-us	2d\	-us
=11-	=11-	=11-	=11-	=11-	=11-	=11-	=11-
!LO:TX:t=P:problem=kreska pseudotaktowa	!	!LO:TX:t=P:problem=kreska pseudotaktowa	!	!	!	!LO:TX:t=P:problem=kreska pseudotaktowa	!
1C/	-us	1G/	-nus	2cny\	Sab-	1e\	Sab-
!	!	!	!	!LO:TX:t=P:problem=kreska pseudotaktowa między nutą a kropką	!	!	!
.	.	.	.	2.G/	.	.	.
1G\	Sab-	1B\	De-	.	.	2.d\	.
.	.	.	.	4A/	.	.	.
.	.	.	.	4B\	.	.	.
!	!	!	!	!LO:TX:t=P:problem=kreska pseudotaktowa	!	!	!
.	.	.	.	4G/	.	4e\	.
=12-	=12-	=12-	=12-	=12-	=12-	=12-	=12-
*	*	*2\right	*	*	*	*	*
2D/	.	2d\	-us	2A/	-ba-	2f\	.
*2\right	*	*	*	*	*	*	*
*	*	*	*	*custos:f	*	*	*
!	!	!LO:TX:t=P:problem=kreska pseudotaktowa	!	!LO:TX:t=P:problem=kreska pseudotaktowa	!	!	!
2E\	.	2B\	.	2G/	-oth	1e\	.
!	!	!	!	!LO:PB:g=original	!	!	!
2C/	.	2c\	Sab-	2r	.	.	.
!LO:TX:t=P:problem=kreska pseudotaktowa	!	!	!	!	!	!	!
2D/	-ba-	2A/	-ba-	2.d\	Ple-	4A/	.
!	!	!	!	!	!	!LO:TX:t=P:problem=kreska pseudotaktowa	!
.	.	.	.	.	.	4d\	-ba-
=13-	=13-	=13-	=13-	=13-	=13-	=13-	=13-
!LO:TX:t=P:problem=kreska pseudotaktowa	!	!LO:TX:t=P:problem=kreska pseudotaktowa	!	!	!	!	!
1GG/	-oth	1B\	-oth	.	.	1d\	-oth
.	.	.	.	4B\	-ni	.	.
!	!	!	!	!LO:TX:t=P:problem=kreska pseudotaktowa	!	!	!
.	.	.	.	2B\	ſunt	.	.
1C/	Ple-	1e\	Ple-	1c\	.	1.c\	Ple-
=14-	=14-	=14-	=14-	=14-	=14-	=14-	=14-
1C/	-ni	1e\	-ni	2.G/	cae-	.	.
!	!	!	!	!	!	!LO:TX:t=P:problem=kreska pseudotaktowa	!
.	.	.	.	.	.	2g\	-ni
!	!	!	!	!LO:TX:t=P:problem=kreska pseudotaktowa	!	!	!
.	.	.	.	4A/	.	.	.
!LO:TX:t=P:problem=kreska pseudotaktowa	!	!LO:TX:t=P:problem=kreska pseudotaktowa	!	!	!	!	!
1GG/	ſunt	1B\	ſunt	4B\	.	1g\	ſunt
.	.	.	.	4A/	.	.	.
.	.	.	.	4G/	.	.	.
!	!	!	!	!LO:TX:t=P:problem=kreska pseudotaktowa	!	!	!
.	.	.	.	4F/	.	.	.
=15-	=15-	=15-	=15-	=15-	=15-	=15-	=15-
1C/	cae-	1e\	cae-	2.G/	.	1g\	cae-
!	!	!	!	!LO:TX:t=P:problem=kreska pseudotaktowa	!	!	!
.	.	.	.	4A/	.	.	.
2D/	-li	1d\	-li	4B\	.	1f\	-li
.	.	.	.	4c\	.	.	.
2D/	et	.	.	4d\	.	.	.
!	!	!	!	!LO:TX:t=P:problem=kreska pseudotaktowa	!	!	!
.	.	.	.	4B\	-li	.	.
=16-	=16-	=16-	=16-	=16-	=16-	=16-	=16-
*	*	*	*	*	*	*custos:e	*
!	!	!LO:TX:t=P:problem=kreska pseudotaktowa	!	!	!	!LO:TX:t=P:problem=kreska pseudotaktowa	!
1AA/	ter-	1c\	et	2c\	et	1e\	et
.	.	.	.	2A/	ter-	.	.
*custos:D	*	*	*	*	*	*	*
!LO:TX:t=P:problem=kreska pseudotaktowa	!	!	!	!	!	!	!
!	!	!	!	!LO:TX:t=P:problem=kreska pseudotaktowa	!	!LO:PB:g=original	!
0E\	-ra	1B\	ter-	0G#X/	-ra	0e\	ter-
=17-	=17-	=17-	=17-	=17-	=17-	=17-	=17-
.	.	1B\	-ra	.	.	.	.
*	*	*custos:d	*	*	*	*	*
!	!	!LO:TX:t=P:problem=kreska pseudotaktowa	!	!	!	!LO:TX:t=P:problem=kreska pseudotaktowa	!
1D\	glo-	1d\	glo-	2r	.	1f\	-ra
!	!	!	!	!LO:TX:t=P:problem=kreska pseudotaktowa	!	!	!
.	.	.	.	2A/	glo-	.	.
!	!	!LO:LB:g=original	!	!	!	!	!
=18-	=18-	=18-	=18-	=18-	=18-	=18-	=18-
2G\	-ri-	2d\	-ri-	2Gny/	-ri-	2d\	glo-
!LO:TX:t=P:problem=kreska pseudotaktowa	!	!LO:TX:t=P:problem=kreska pseudotaktowa	!	!	!	!	!
2G\	-a	2B\	-a	1G/	-a	2d\	-ri-
2C/	tu-	2c\	tu-	.	.	2e\	-a
*	*	*	*	*custos:G	*	*	*
!LO:TX:t=P:problem=kreska pseudotaktowa	!	!	!	!LO:TX:t=P:problem=kreska pseudotaktowa	!	!LO:TX:t=P:problem=kreska pseudotaktowa	!
2F\	-a	2A/	.	2F/	tu-	2c/	tu-
!	!	!	!	!LO:LB:g=original	!	!	!
=19-	=19-	=19-	=19-	=19-	=19-	=19-	=19-
*	*ij	*lig	*	*	*	*	*
2.C/	glo-	1G/	.	1E/	-a	2.c/	-a
*	*	*	*	*	*ij	*	*ij
4C/	-ri-	.	.	.	.	4c/	glo-
!LO:TX:t=P:problem=kreska pseudotaktowa	!	!	!	!	!	!	!
1D\	-a	1F/	.	4F/	glo-	2A/	-ri-
.	.	.	.	4G/	-ri-	.	.
.	.	.	.	1A\	-a	1d\	-a
*	*	*Xlig	*	*	*	*	*
=20-	=20-	=20-	=20-	=20-	=20-	=20-	=20-
1AA/	tu-	1E/	-a	.	.	.	.
!	!	!	!	!LO:TX:t=P:problem=kreska pseudotaktowa	!	!LO:TX:t=P:problem=kreska pseudotaktowa	!
.	.	.	.	2A/	tu-	2c#X/	tu-
*	*	*	*ij	*	*	*	*
!LO:TX:t=P:problem=kreska pseudotaktowa	!	!LO:TX:t=P:problem=kreska pseudotaktowa	!	!	!	!	!
1D\	-a	1D/	glo-	1F/	-a	1.d\	-a
=21-	=21-	=21-	=21-	=21-	=21-	=21-	=21-
2r	.	2E/	-ri-	2r	.	.	.
!	!	!	!	!LO:TX:t=P:problem=kreska pseudotaktowa	!	!LO:TX:t=P:problem=kreska pseudotaktowa	!
2AA/	glo-	2E/	-a	2A/	glo-	2cny/	glo-
2D/	-ri-	0F/	tu-	2A/	-ri-	2d\	-ri-
!LO:TX:t=P:problem=kreska pseudotaktowa	!	!	!	!	!	!	!
2D/	-a	.	.	2A/	-a	2d\	-a
=22-	=22-	=22-	=22-	=22-	=22-	=22-	=22-
1D\	tu-	.	.	1A\	tu-	1d\	tu-
1AA/;l	-a	1E/l	-a	1A\l	-a	1c#X\;l	-a
!LO:PB:g=original	!	!	!	!	!	!LO:LB:g=original	!
=23||-	=23||-	=23||-	=23||-	=23||-	=23||-	=23||-	=23||-
*M3/1	*Xij	*M3/1	*Xij	*M3/1	*Xij	*M3/1	*Xij
1D\	O-	1.A\	O-	2D/	O-	2F/	O-
.	.	.	.	2E/	.	2G/	.
1D\	-ſan-	.	.	2F/	.	2A/	.
.	.	2G/	.	2G/	.	2B/	.
!LO:TX:t=P:problem=kreska pseudotaktowa	!	!LO:TX:t=P:problem=kreska pseudotaktowa	!	!	!	!	!
1D\	-na	1F/	.	2A/	.	2cny/	.
!	!	!	!	!LO:TX:t=P:problem=kreska pseudotaktowa	!	!LO:TX:t=P:problem=kreska pseudotaktowa	!
.	.	.	.	2B\	.	2d\	.
=24-	=24-	=24-	=24-	=24-	=24-	=24-	=24-
1.AA/	in	0E/	-ſan-	0c\	-ſan-	0e\	-ſan-
2BB/	.	.	.	.	.	.	.
*	*	*custos:G	*	*	*	*	*
!	!	!LO:TX:t=P:problem=kreska pseudotaktowa	!	!LO:TX:t=P:problem=kreska pseudotaktowa	!	!LO:TX:t=P:problem=kreska pseudotaktowa	!
2C/	.	1E/	-na	1c\	-na	1e\	-na
!LO:TX:t=P:problem=kreska pseudotaktowa	!	!	!	!	!	!	!
2D/	.	.	.	.	.	.	.
!	!	!LO:LB:g=original	!	!	!	!	!
=25-	=25-	=25-	=25-	=25-	=25-	=25-	=25-
*col	*	*	*	*col	*	*	*ij
1E\	.	0G/	in	1B\	in	0.e\	O-
*	*	*	*	*custos:A	*	*	*
!LO:TX:t=P:problem=kreska pseudotaktowa	!	!	!	!	!	!	!
0C/	ex-	.	.	0c\	ex-	.	.
.	.	1G/	ex-	.	.	.	.
!	!	!LO:TX:t=P:problem=kreska pseudotaktowa	!	!LO:LB:g=original	!	!	!
*Xcol	*	*	*	*Xcol	*	*	*
=26-	=26-	=26-	=26-	=26-	=26-	=26-	=26-
0.D\	-cel-	1.F/	-cel-	0.A\	-cel-	0.d\	-ſan-
.	.	2G/	.	.	.	.	.
!	!	!LO:TX:t=P:problem=kreska pseudotaktowa	!	!	!	!	!
.	.	1A\	.	.	.	.	.
=27-	=27-	=27-	=27-	=27-	=27-	=27-	=27-
!LO:TX:t=P:problem=kreska pseudotaktowa	!	!LO:TX:t=P:problem=kreska pseudotaktowa	!	!LO:TX:t=P:problem=kreska pseudotaktowa	!	!LO:TX:t=P:problem=kreska pseudotaktowa	!
0.AA/	-ſis	0.A\	-ſis	0.A\	-sis	0.c\	-na
*	*ij	*	*ij	*	*ij	*	*Xij
=28-	=28-	=28-	=28-	=28-	=28-	=28-	=28-
1D\	O-	0.r	.	1F/	O-	00.r	.
1D\	-ſan-	.	.	1F/	-ſan-	.	.
!LO:TX:t=P:problem=kreska pseudotaktowa	!	!	!	!LO:TX:t=P:problem=kreska pseudotaktowa	!	!	!
1E\	-na	.	.	1G/	-na	.	.
=29-	=29-	=29-	=29-	=29-	=29-	=29-	=29-
1.F\	in	1A\	O-	1.A\	in	.	.
.	.	1A\	-ſan-	.	.	.	.
2E\	.	.	.	2G/	.	.	.
*custos:C	*	*	*	*	*	*	*
!LO:TX:t=P:problem=kreska pseudotaktowa	!	!LO:TX:t=P:problem=kreska pseudotaktowa	!	!LO:TX:t=P:problem=kreska pseudotaktowa	!	!	!
1D\	ex-	1B\	-na	1F/	ex-	.	.
=30-	=30-	=30-	=30-	=30-	=30-	=30-	=30-
1C/	-cel-	1.c\	in	1E/	-cel-	1e\	O-
!	!	!	!	!LO:TX:t=P:problem=kreska pseudotaktowa	!	!	!
0AA/	-ſis	.	.	0C/	.	1e\	-ſan-
.	.	2B\	ex-	.	.	.	.
!	!	!LO:TX:t=P:problem=kreska pseudotaktowa	!	!	!	!LO:TX:t=P:problem=kreska pseudotaktowa	!
.	.	1A\	-cel-	.	.	1f\	-na
*	*Xij	*	*	*	*	*	*
=31-	=31-	=31-	=31-	=31-	=31-	=31-	=31-
2E\	in	0.G/	-sis	2G/	-sis	1.g\	in
2D/	.	.	.	2F/	.	.	.
2C/	.	.	.	2E/	.	.	.
2D/	.	.	.	2F/	.	2f\	.
!	!	!	!	!	!	!LO:TX:t=P:problem=kreska pseudotaktowa	!
2E\	.	.	.	2G/	.	1e\	.
!LO:TX:t=P:problem=kreska pseudotaktowa	!	!	!	!LO:TX:t=P:problem=kreska pseudotaktowa	!	!	!
2F\	.	.	.	2A/	.	.	.
=32-	=32-	=32-	=32-	=32-	=32-	=32-	=32-
*lig	*	*lig	*Xij	*col	*	*col	*
1G\	.	1G/	in	0B\	o-	1d\	ex-
*	*	*	*	*	*	*custos:B	*
1C/	.	1E/	.	.	.	0c\	.
*Xlig	*	*Xlig	*	*	*	*Xcol	*
!	!	!LO:TX:t=P:problem=kreska pseudotaktowa	!	!	!	!	!
1D\	ex-	1A\	ex-	0A\	-ſan-	.	.
!	!	!	!	!	!	!LO:LB:g=original	!
=33-	=33-	=33-	=33-	=33-	=33-	=33-	=33-
0.E\	-cel-	0.E/	-cel-	.	.	0.B/	-cel-
!	!	!	!	!LO:TX:t=P:problem=kreska pseudotaktowa	!	!	!
.	.	.	.	0G#X/	-na	.	.
*	*	*	*	*Xcol	*	*	*
=34-	=34-	=34-	=34-	=34-	=34-	=34-	=34-
!	!	!LO:TX:t=P:problem=kreska pseudotaktowa	!	!	!	!LO:TX:t=P:problem=kreska pseudotaktowa	!
0.AA/	.	0.E/	-sis	0.A\	in	0.A/	-sis
=35-	=35-	=35-	=35-	=35-	=35-	=35-	=35-
!LO:TX:t=P:problem=kreska pseudotaktowa	!	!	!	!	!	!	!
0.AA/	-ſis	1E/	o-	1A\	ex-	0.r	.
.	.	1E/	-ſan-	1A\	-cel-	.	.
!	!	!	!	!LO:TX:t=P:problem=kreska pseudotaktowa	!	!	!
.	.	1F/	-na	1A\	-sis	.	.
!	!	!LO:LB:g=original	!	!LO:LB:g=original	!	!	!
=36-	=36-	=36-	=36-	=36-	=36-	=36-	=36-
*	*	*	*	*	*	*	*ij
1BB/	O-	1.G/	in	1.B\	o-	1g\	O-
1BB/	-ſan-	.	.	.	.	1g\	-ſan-
.	.	2F/	ex-	2A/	.	.	.
!LO:TX:t=P:problem=kreska pseudotaktowa	!	!	!	!	!	!LO:TX:t=P:problem=kreska pseudotaktowa	!
1C/	-na	2E/	-cel-	2G/	.	1g\	-na
!	!	!LO:TX:t=P:problem=kreska pseudotaktowa	!	!LO:TX:t=P:problem=kreska pseudotaktowa	!	!	!
.	.	2E/	-sis	2G/	-ſan-	.	.
=37-	=37-	=37-	=37-	=37-	=37-	=37-	=37-
*	*	*	*ij	*	*	*	*
1.D\	in	1F/	o-	1A\	.	1.d\	in
.	.	1F/	-ſan-	1A\	-na	.	.
2C/	ex-	.	.	.	.	2d\	ex-
!LO:TX:t=P:problem=kreska pseudotaktowa	!	!LO:TX:t=P:problem=kreska pseudotaktowa	!	!LO:TX:t=P:problem=kreska pseudotaktowa	!	!	!
1BB/	-cel-	1G/	-na	1B\	in	2g\	-cel-
!	!	!	!	!	!	!LO:TX:t=P:problem=kreska pseudotaktowa	!
.	.	.	.	.	.	2g\	-sis
=38-	=38-	=38-	=38-	=38-	=38-	=38-	=38-
*custos:E	*	*	*	*	*	*	*
0.AA/	-sis	1.A\	in	1.c\	.	1e\	O-
.	.	.	.	.	.	1e\	-ſan-
.	.	2G/	ex-	2B\	.	.	.
!	!	!LO:TX:t=P:problem=kreska pseudotaktowa	!	!	!	!LO:TX:t=P:problem=kreska pseudotaktowa	!
.	.	1F/	-cel-	2A/	.	1f\	-na
!	!	!	!	!LO:TX:t=P:problem=kreska pseudotaktowa	!	!	!
.	.	.	.	2A/	ex-	.	.
!LO:LB:g=original	!	!	!	!	!	!	!
=39-	=39-	=39-	=39-	=39-	=39-	=39-	=39-
*	*ij	*	*	*	*	*	*
0E\	in	0G/	-sis	1E/	.	1.g\	in
*	*	*	*Xij	*	*	*	*
.	.	.	.	1B\	.	.	.
.	.	.	.	.	.	2f\	.
!LO:TX:t=P:problem=kreska pseudotaktowa	!	!	!	!LO:TX:t=P:problem=kreska pseudotaktowa	!	!LO:TX:t=P:problem=kreska pseudotaktowa	!
1A\	ex-	1c\	in	1A\	.	1e\	.
=40-	=40-	=40-	=40-	=40-	=40-	=40-	=40-
[>0.E\	-cel-	0B\	ex-	0A\	.	0e\	ex-
!	!	!LO:TX:t=P:problem=kreska pseudotaktowa	!	!	!	!	!
*	*	*	*	*	*	*col	*
.	.	1E/	.	1G#X/	.	1e\	-cel-
=41-	=41-	=41-	=41-	=41-	=41-	=41-	=41-
0.E\]	.	0.E/	-cel-	0.G#X/	-cel-	0.B/	.
*	*	*	*	*	*	*Xcol	*
=42-	=42-	=42-	=42-	=42-	=42-	=42-	=42-
0.AA/l	-ſis	0.E/;l	-sis	0.A\l	-ſis	0.c#X\l	-sis
!	!	!LO:LB:g=original	!	!LO:LB:g=original	!	!LO:LB:g=original	!
=43||-	=43||-	=43||-	=43||-	=43||-	=43||-	=43||-	=43||-
*M2/1	*Xij	*M2/1	*	*M2/1	*	*M2/1	*Xij
*met(C|)	*	*met(C|)	*	*met(C|)	*	*met(C|)	*
*	*	*lig	*	*	*Xij	*	*
00r	.	1A\	Be-	2r	.	0r	.
.	.	.	.	2.e\	Be-	.	.
.	.	1G/	.	.	.	.	.
.	.	.	.	4e\	-ne-	.	.
!	!	!	!	!LO:TX:t=P:problem=kreska pseudotaktowa	!	!	!
.	.	.	.	2B\	-di-	.	.
*	*	*Xlig	*	*	*	*	*
=44-	=44-	=44-	=44-	=44-	=44-	=44-	=44-
*	*	*lig	*	*	*	*	*
.	.	1A\	-ne-	2.c\	-ctus	2r	.
.	.	.	.	.	.	2.a\	Be-
.	.	.	.	4d\	qui	.	.
.	.	1c\	.	2e\	ve-	.	.
.	.	.	.	.	.	4a\	-ne-
!	!	!	!	!LO:TX:t=P:problem=kreska pseudotaktowa	!	!LO:TX:t=P:problem=kreska pseudotaktowa	!
.	.	.	.	2e\	-nit	2e\	-di-
*	*	*Xlig	*	*	*ij	*	*
=45-	=45-	=45-	=45-	=45-	=45-	=45-	=45-
!LO:TX:t=P:problem=kreska pseudotaktowa	!	!	!	!	!	!	!
0r	.	0d\	-di-	2r	.	2.f\	-ctus
.	.	.	.	2.d\	Be-	.	.
.	.	.	.	.	.	4g\	.
.	.	.	.	.	.	2a\	qui
.	.	.	.	4d\	-ne-	.	.
!	!	!	!	!LO:TX:t=P:problem=kreska pseudotaktowa	!	!LO:TX:t=P:problem=kreska pseudotaktowa	!
.	.	.	.	2A/	-di-	2f\	ve-
=46-	=46-	=46-	=46-	=46-	=46-	=46-	=46-
!	!	!LO:TX:t=P:problem=kreska pseudotaktowa	!	!	!	!	!
2r	.	0A\	-ctus	2.c\	-ctus	1.e\	-nit
2.A\	be-	.	.	.	.	.	.
.	.	.	.	4d\	qui	.	.
.	.	.	.	2e\	ve-	.	.
4A\	-ne-	.	.	.	.	.	.
*	*	*	*	*	*	*	*ij
!LO:TX:t=P:problem=kreska pseudotaktowa	!	!	!	!LO:TX:t=P:problem=kreska pseudotaktowa	!	!LO:TX:t=P:problem=kreska pseudotaktowa między nutą a kropką	!
2AA/	-di-	.	.	2c\	-nit	2.a\	Be-
=47-	=47-	=47-	=47-	=47-	=47-	=47-	=47-
*	*	*lig	*	*	*	*	*
2.F\	-ctus	1A\	qui	1d\	Be-	.	.
.	.	.	.	.	.	4a\	-ne-
!	!	!	!	!	!	!LO:TX:t=P:problem=kreska pseudotaktowa	!
.	.	.	.	.	.	2A/	-di-
!LO:TX:t=P:problem=kreska pseudotaktowa	!	!	!	!	!	!	!
4G\	qui	.	.	.	.	.	.
2A\	Ve-	1c\	.	2c\	-ne-	2.e\	-ctus
!	!	!	!	!LO:TX:t=P:problem=kreska pseudotaktowa między nutą a kropką	!	!	!
4G\	.	.	.	2.A/	-di-	.	.
*custos:E	*	*	*	*	*	*	*
!LO:TX:t=P:problem=kreska pseudotaktowa	!	!	!	!	!	!	!
4F\	.	.	.	.	.	4f\	.
*	*	*Xlig	*	*	*	*	*
!LO:LB:g=original	!	!	!	!	!	!	!
=48-	=48-	=48-	=48-	=48-	=48-	=48-	=48-
*	*	*lig	*	*	*	*	*
4E\	.	1G/	ve-	.	.	2.g\	qui
8D/L	.	.	.	4A/	-ctus	.	.
8C/J	.	.	.	.	.	.	.
!LO:TX:t=P:problem=kreska pseudotaktowa	!	!	!	!LO:TX:t=P:problem=kreska pseudotaktowa	!	!	!
2GG/	.	.	.	2E/	qui	.	.
.	.	.	.	.	.	2d\	.
!LO:TX:t=P:problem=kreska pseudotaktowa	!	!	!	!	!	!	!
1D\	-nit	1F/	.	2.F/	ve-	.	.
.	.	.	.	.	.	4e\	.
.	.	.	.	.	.	4f\	.
!	!	!	!	!	!	!LO:TX:t=P:problem=kreska pseudotaktowa	!
.	.	.	.	4G/	.	4d\	.
!	!	!	!	!LO:TX:t=P:problem=kreska pseudotaktowa	!	!	!
*	*	*Xlig	*	*	*	*	*
=49-	=49-	=49-	=49-	=49-	=49-	=49-	=49-
*	*ij	*lig	*	*	*	*	*
*	*	*	*	*	*	*custos:d	*
!	!	!	!	!	!	!LO:TX:t=P:problem=kreska pseudotaktowa	!
2r	.	1E/	.	2A/	-nit	1e\	.
2.AA/	Be-	.	.	2.A/	.	.	.
!	!	!	!	!	!	!LO:LB:g=original	!
.	.	1F/	.	.	.	1d\	ve-
4AA/	-ne-	.	.	4G/	.	.	.
!LO:TX:t=P:problem=kreska pseudotaktowa	!	!	!	!LO:TX:t=P:problem=kreska pseudotaktowa między nutą a kropką	!	!	!
2D/	-di-	.	.	2.F/	.	.	.
*	*	*Xlig	*	*	*Xij	*	*
=50-	=50-	=50-	=50-	=50-	=50-	=50-	=50-
!	!	!LO:TX:t=P:problem=kreska pseudotaktowa	!	!	!	!LO:TX:t=P:problem=kreska pseudotaktowa	!
2.F\	-ctus	0D/	-nit	.	.	1A/	-nit
.	.	.	.	4G/	.	.	.
.	.	.	.	4A/	.	.	.
!LO:TX:t=P:problem=kreska pseudotaktowa	!	!	!	!	!	!	!
4G\	qui	.	.	8B\L	.	.	.
!	!	!	!	!LO:TX:t=P:problem=kreska pseudotaktowa	!	!	!
.	.	.	.	8c\J	.	.	.
2A\	ve-	.	.	2d\	.	2r	.
!LO:TX:t=P:problem=kreska pseudotaktowa	!	!	!	!	!	!	!
2D/	.	.	.	2A/	.	2.d\	Be-
=51-	=51-	=51-	=51-	=51-	=51-	=51-	=51-
2GG/,<	-nit	1G/	in	2.B\	.	.	.
.	.	.	.	.	.	4d\	-ne-
!	!	!	!	!	!	!LO:TX:t=P:problem=kreska pseudotaktowa	!
2.G\	Be-	.	.	.	.	2G/	-di-
!	!	!	!	!LO:TX:t=P:problem=kreska pseudotaktowa	!	!	!
.	.	.	.	4c\	.	.	.
.	.	1G/	no-	1d\	.	2.B/	-ctus
4G\	-ne-	.	.	.	.	.	.
!LO:TX:t=P:problem=kreska pseudotaktowa	!	!	!	!	!	!	!
2GG/	-di-	.	.	.	.	.	.
.	.	.	.	.	.	4cny/	.
=52-	=52-	=52-	=52-	=52-	=52-	=52-	=52-
1D\	-ctus	1D/	-mi-	2d\	.	4d\	qui
.	.	.	.	.	.	4d\	ve-
!	!	!	!	!LO:TX:t=P:problem=kreska pseudotaktowa	!	!LO:TX:t=P:problem=kreska pseudotaktowa między nutą a kropką	!
.	.	.	.	2A/	in	2.f\	-nit
!	!	!LO:TX:t=P:problem=kreska pseudotaktowa	!	!	!	!	!
2AA/	qui	1C/	-ne	2.c\	no-	.	.
.	.	.	.	.	.	4f\	.
!LO:TX:t=P:problem=kreska pseudotaktowa	!	!	!	!	!	!LO:TX:t=P:problem=kreska pseudotaktowa	!
2FF/	ve-	.	.	.	.	2c/	.
!	!	!	!	!LO:TX:t=P:problem=kreska pseudotaktowa	!	!	!
.	.	.	.	4G/	-mi-	.	.
=53-	=53-	=53-	=53-	=53-	=53-	=53-	=53-
*	*	*custos:G	*	*	*	*	*
4F\	.	1F/	Do-	2d\	-ne	2.d\	.
4E\	.	.	.	.	.	.	.
*custos:GG	*	*	*	*	*	*	*
!LO:TX:t=P:problem=kreska pseudotaktowa	!	!	!	!	!	!	!
2D/	.	.	.	1d\	Do-	.	.
.	.	.	.	.	.	4c/	.
!LO:LB:g=original	!	!	!	!	!	!	!
2GG/,<	-nit	2.G/	.	.	.	4B/	.
.	.	.	.	.	.	4B/	.
*	*Xij	*	*	*	*	*	*Xij
!LO:TX:t=P:problem=kreska pseudotaktowa	!	!	!	!LO:TX:t=P:problem=kreska pseudotaktowa	!	!LO:TX:t=P:problem=kreska pseudotaktowa	!
2BB/	in	.	.	2G/	-mi-	2B/	in
!	!	!LO:PB:g=original	!	!	!	!	!
.	.	4G/	-mi-	.	.	.	.
=54-	=54-	=54-	=54-	=54-	=54-	=54-	=54-
!	!	!LO:TX:t=P:problem=kreska pseudotaktowa	!	!	!	!	!
2.AA/	no-	0A\	-ni	1.c\	-ni	2.c/	no-
!LO:TX:t=P:problem=kreska pseudotaktowa	!	!	!	!	!	!	!
4AA/	-mi-	.	.	.	.	4B/	-mi-
2AA/	-ne	.	.	.	.	1A/	-ne
*	*	*	*	*	*ij	*	*
2.D/	Do-	.	.	1G/	in	.	.
=55-	=55-	=55-	=55-	=55-	=55-	=55-	=55-
*	*	*lig	*	*	*	*	*
.	.	1A\	in	.	.	2f\	Do-
4D/	-mi-	.	.	.	.	.	.
!	!	!	!	!LO:TX:t=P:problem=kreska pseudotaktowa	!	!LO:TX:t=P:problem=kreska pseudotaktowa	!
4AA/	-ni	.	.	2c\	no-	2c/	-mi-
*	*ij	*	*	*	*	*	*
!LO:TX:t=P:problem=kreska pseudotaktowa	!	!	!	!	!	!	!
4AA/	in	.	.	.	.	.	.
*	*	*	*	*custos:f	*	*	*
2.D/	no-	1F/	.	2d\	-mi-	1f\	.
.	.	.	.	2.d\	-ne	.	.
4C/	-mi-	.	.	.	.	.	.
*	*	*Xlig	*	*	*	*	*
!	!	!	!	!LO:LB:g=original	!	!	!
=56-	=56-	=56-	=56-	=56-	=56-	=56-	=56-
*	*	*	*	*	*	*custos:A	*
!LO:TX:t=P:problem=kreska pseudotaktowa	!	!	!	!	!	!	!
1BB/	-ne	1G/	no-	.	.	1B/	-ni
.	.	.	.	4d\	Do-	.	.
!	!	!	!	!LO:TX:t=P:problem=kreska pseudotaktowa	!	!	!
.	.	.	.	2B\	.	.	.
*	*	*	*	*	*	*lig	*ij
!	!	!	!	!	!	!LO:PB:g=original	!
2D/	Do-	1F/	-mi-	4A/	-mi-	1A/	Do-
.	.	.	.	4B\	.	.	.
2AA/	-mi-	.	.	4c\	-ni	.	.
!	!	!	!	!LO:TX:t=P:problem=kreska pseudotaktowa	!	!	!
.	.	.	.	4d\	.	.	.
=57-	=57-	=57-	=57-	=57-	=57-	=57-	=57-
!LO:TX:t=P:problem=kreska pseudotaktowa	!	!	!	!	!	!	!
*	*	*lig	*	*	*	*	*
1C/	-ni	1E/	-ne	2c\	in	1e\	.
!	!	!	!	!LO:TX:t=P:problem=kreska pseudotaktowa	!	!	!
.	.	.	.	2G/	no-	.	.
*	*	*	*	*	*	*Xlig	*
!	!	!LO:TX:t=P:problem=kreska pseudotaktowa	!	!	!	!	!
2FF/	in	1F/	.	2.A/	.	2c/	-mi-
!	!	!	!	!	!	!LO:TX:t=P:problem=kreska pseudotaktowa	!
1F\	no-	.	.	.	.	2d\	-ni
!	!	!	!	!LO:TX:t=P:problem=kreska pseudotaktowa	!	!	!
.	.	.	.	4G/	.	.	.
*	*	*Xlig	*	*	*	*	*
=58-	=58-	=58-	=58-	=58-	=58-	=58-	=58-
*	*	*lig	*	*	*	*	*
.	.	1D/	Do-	4F/	.	2r	.
.	.	.	.	4F/	-mi-	.	.
!	!	!	!	!LO:TX:t=P:problem=kreska pseudotaktowa między nutą a kropką	!	!	!
4E\	.	.	.	2.A/	-ne	2a\	in
!LO:TX:t=P:problem=kreska pseudotaktowa	!	!	!	!	!	!	!
4D/	-mi-	.	.	.	.	.	.
2A\	-ne	1E/	.	.	.	2a\	no-
.	.	.	.	4B\	.	.	.
!	!	!	!	!	!	!LO:TX:t=P:problem=kreska pseudotaktow	!
1AA/	.	.	.	1c\	Do-	2e\	-mi-
*	*	*Xlig	*	*	*	*	*
=59-	=59-	=59-	=59-	=59-	=59-	=59-	=59-
.	.	2C#X/	.	.	.	2.f\	-ne
!	!	!	!	!LO:TX:t=P:problem=kreska pseudotaktowa	!	!	!
2AA/	Do-	2AA/	.	2d\	.	.	.
.	.	.	.	.	.	4g\	.
1AA/	-mi-	2BB/	.	2e\	.	2.a\	Do-
.	.	2C#X/	-mi-	2A/	-mi-	.	.
.	.	.	.	.	.	4a\	-mi-
=60-	=60-	=60-	=60-	=60-	=60-	=60-	=60-
!LO:TX:b:i:t=Vertat(ur) Osanna	!	!	!	!	!	!	!
0D\l	-ni	0D/l	-ni	0A\l	-ni	0f#X\l	-ni
!LO:PB:g=original	!	!	!	!LO:LB:g=original	!	!	!
=61||-	=61||-	=61||-	=61||-	=61||-	=61||-	=61||-	=61||-
*M3/1	*	*M3/1	*	*M3/1	*Xij	*M3/1	*Xij
1.D\	O-	0.A\	O-	1d\	O-	1.f#X\	O-
.	.	.	.	1B\	-ſan-	.	.
2E\	.	.	.	.	.	2g\	.
!	!	!	!	!LO:TX:t=P:problem=kreska pseudotaktowa	!	!	!
2F#X\	-ſan-	.	.	1d\	-na	2a\	.
*	*	*	*	*	*	*custos:g	*
!LO:TX:t=P:problem=kreska pseudotaktowa	!	!	!	!	!	!LO:TX:t=P:problem=kreska pseudotaktowa	!
2D/	-na	.	.	.	.	2f#\	.
=62-	=62-	=62-	=62-	=62-	=62-	=62-	=62-
*col	*	*	*	*	*	*	*
*	*	*custos:F	*	*	*	*	*
!	!	!	!	!	!	!LO:LB:g=original	!
*	*	*	*	*	*	*col	*
1G\	in	0.G/	-ſan-	0B\	in	1g\	.
!LO:TX:t=P:problem=kreska pseudotaktowa	!	!	!	!	!	!LO:TX:t=P:problem=kreska pseudotaktowa	!
0GG/	ex-	.	.	.	.	0d\	.
!	!	!	!	!LO:TX:t=P:problem=kreska pseudotaktowa	!	!	!
.	.	.	.	1B\	ex-	.	.
*Xcol	*	*	*	*	*	*	*
!	!	!LO:LB:g=original	!	!	!	!	!
=63-	=63-	=63-	=63-	=63-	=63-	=63-	=63-
1.D\	-cel-	0.F#X/	-na	0A\	-cel-	1d\	-ſan-
!	!	!	!	!	!	!LO:TX:t=P:problem=kreska pseudotaktowa	!
.	.	.	.	.	.	0d\	-na
2E\	.	.	.	.	.	.	.
!	!	!	!	!LO:TX:t=P:problem=kreska pseudotaktowa	!	!	!
2F#X\	.	.	.	1A\	-sis-	.	.
2D/	.	.	.	.	.	.	.
!LO:TX:t=P:problem=kreska pseudotaktowa	!	!	!	!	!	!	!
*	*	*	*	*	*	*Xcol	*
=64-	=64-	=64-	=64-	=64-	=64-	=64-	=64-
1G\	.	0.G/	in	0B\	in	0d\	in
1GG/	.	.	.	.	.	.	.
!LO:TX:t=P:problem=kreska pseudotaktowa	!	!	!	!LO:TX:t=P:problem=kreska pseudotaktowa	!	!LO:TX:t=P:problem=kreska pseudotaktowa	!
1G\	.	.	.	1B\	ex-	1d\	ex-
=65-	=65-	=65-	=65-	=65-	=65-	=65-	=65-
*col	*	*	*	*col	*	*col	*
1D\	.	0.Fny/	ex-	1A\	-cel-	1d\	-cel-
!LO:TX:t=P:problem=kreska pseudotaktowa	!	!	!	!LO:TX:t=P:problem=kreska pseudotaktowa	!	!LO:TX:t=P:problem=kreska pseudotaktowa	!
0D\	-ſis	.	.	0A\	-sis	0d\	-sis
*Xcol	*ij	*	*	*Xcol	*ij	*Xcol	*ij
=66-	=66-	=66-	=66-	=66-	=66-	=66-	=66-
1.AA/	O-	0.E/	-cel-	1.c#X\	O-	1e\	O-
.	.	.	.	.	.	1e\	-ſan-
2BB/	.	.	.	2d\	.	.	.
!	!	!	!	!	!	!LO:TX:t=P:problem=kreska pseudotaktowa	!
2C#X/	-ſan-	.	.	2e\	-ſan-	1A/	-na
*custos:D	*	*	*	*	*	*	*
!LO:TX:t=P:problem=kreska pseudotaktowa	!	!	!	!LO:TX:t=P:problem=kreska pseudotaktowa	!	!	!
2AA/	.	.	.	2c#X\	-na	.	.
=67-	=67-	=67-	=67-	=67-	=67-	=67-	=67-
*	*	*	*	*col	*	*col	*
1D\	-na	0.F/	.	1d\	in	1A/	in
!	!	!	!	!LO:TX:t=P:problem=kreska pseudotaktowa	!	!	!
1D\	in	.	.	0A\	ex-	0d\	.
1D\	ex-	.	.	.	.	.	.
!LO:TX:t=P:problem=kreska pseudotaktowa	!	!	!	!	!	!	!
*	*	*	*	*Xcol	*	*Xcol	*
=68-	=68-	=68-	=68-	=68-	=68-	=68-	=68-
*col	*	*	*	*	*	*	*
1GG/	-cel-	[0.D/l	-ſis	0B-X\	-cel-	0d\	ex-
!LO:TX:t=P:problem=kreska pseudotaktowa	!	!	!	!	!	!	!
0GG/	-ſis	.	.	.	.	.	.
*	*	*	*	*custos:c	*	*	*
!	!	!	!	!	!	!LO:TX:t=P:problem=kreska pseudotaktowa	!
!	!	!	!	!LO:TX:t=P:problem=kreska pseudotaktowa	!	!	!
.	.	.	.	1B-\	-sis	1d\	-cel-
*Xcol	*	*	*	*	*	*	*
!	!	!	!	!LO:LB:g=original	!	!	!
=69-	=69-	=69-	=69-	=69-	=69-	=69-	=69-
!	!	!	!	!LO:TX:t=P:problem=kreska pseudotaktowa	!	!	!
1.D\	O	0.D/_	.	0.A\	in	2d\	-sis
.	.	.	.	.	.	2e\	O-
.	.	.	.	.	.	2f#X\	-ſan-
2E\	.	.	.	.	.	2g\	-na
2F#X\	-ſan-	.	.	.	.	2a\	in
!LO:TX:t=P:problem=kreska pseudotaktowa	!	!	!	!	!	!	!
2D/	-na	.	.	.	.	2f#X\	ex-
=70-	=70-	=70-	=70-	=70-	=70-	=70-	=70-
*col	*	*	*	*	*	*	*
1G\	in	0.D/_	.	2B-X\	ex-	0g\	.
.	.	.	.	2A/	.	.	.
!LO:TX:t=P:problem=kreska pseudotaktowa	!	!	!	!	!	!	!
0GG/	ex-	.	.	2B-\	.	.	.
.	.	.	.	2cny\	.	.	.
!	!	!	!	!LO:TX:t=P:problem=kreska pseudotaktowa	!	!	!
.	.	.	.	1d\	.	1d\	.
*Xcol	*	*	*	*	*	*	*
=71-	=71-	=71-	=71-	=71-	=71-	=71-	=71-
*	*	*	*	*	*	*col	*
0.GG/	-cel-	0.D/_	.	0.B-X\	-cel-	1d\	.
.	.	.	.	.	.	0g\	-cel-
*	*	*	*	*	*	*Xcol	*
=72-	=72-	=72-	=72-	=72-	=72-	=72-	=72-
0.D\l	-ſis	0.D/]	.	0.A\l	-sis	0.f#X\l	-sis
==	==	==	==	==	==	==	==
*-	*-	*-	*-	*-	*-	*-	*-
!!!system-decoration: [(*)]
!!!RDF**kern: l = terminal long
!!!RDF**kern: > = above
!!!RDF**kern: < = below
!!!ENC: Anastazja Marusiak
!!!END: 2022-01-25
!!!EED: Andrzej Borzym
!!!EEV: 2022-01-29
